X: 37270
T: Skibbereen
R: waltz
M: 3/4
K: Aminor
E2|E4 D2|E4 G2|A4 G2|E4 C2|D4 C2|A,4 A,2|(A,4|A,4) A2|
A4 B2|c4 B2|A4 E2|G4 A2|E4 D2|C4 D2|(E6|E4) A2|
A4 B2|c4 B2|A4 E2|G4 A2|E4 D2|C4 D2|(E6|E4) E2|
E4 D2|E4 G2|A4 G2|E4 C2|D4 C2|A,4 G,2|(A,6|A,4)||

